X: 35316
T: Roseate Tern, The
R: reel
M: 4/4
K: Eminor
zF|EB,B,E FDDF|GEEG FGAF|EedB AcBA|BGAG FAGF|
EG,B,E FEDF|GB,EG AGFD|EedB AcBA|GEFD E2:|
GA|[B2G2]cB AF[d2F2]|eBcB AGFD|EBGB AcBA|BEGE AGFA|
[B2G2]cB AF[d2F2]|eBcB AGFD|EEGB AcBA|GEFD E2GA|
[B2G2]cB AF[d2F2]|eBcB AGFD|EBGB AcBA|BEGE AGFD|
EB,FE DEFA|GEBG ABcd|eB~B2 A/B/c BA|GEFD E2||

